X:1
T:Polsk
T: (Totakt-pols, nr. MN-224)
S:efter Mads Nielsen
R:Totakt-pols
O:Tyvkjer Mark, Danmark
N:Från nothäftet "Totakt-pols" av Åke Persson, Ethel Wieslander m fl.
M:2/4
L:1/8
Q:1/4=100
K: D 
A |: ddff | e1/2d1/2c1/2B1/2 AA | eegg | f1/2e1/2f1/2g1/2 fe | ddff | e1/2d1/2c1/2B1/2 AA | f1/2e1/2f1/2g1/2 ac |1 d2 zA :|2 d2 zc1/2d1/2 |
|: eeaa | e1/2d1/2c1/2B1/2 AA | eegg | f1/2e1/2f1/2g1/2 fe | ddff | e1/2d1/2c1/2B1/2 AA | f1/2e1/2f1/2g1/2 ac | d2 z2 :|

